X: 40128
T: Tie The Bonnet
R: reel
M: 4/4
K: Amixolydian
~A3g fdec|~A3d B~G3|~A3g fdef|~g3d B~G3|
AEAg fded|ADAd BGFG|A~g3 fz d/e/f|gbg B~G3||
faa/a/a gfed|cAeA fA eA|fzaf gfef|gzgd B~G3|
faaf gfed|c~e3 A~e3|fzaf gfef|gbgd B~G3||

